src/images/icon/skill-3.svg

<svg width="90" height="90" viewBox="0 0 90 90" fill="none" xmlns="http://www.w3.org/2000/svg">
<g clip-path="url(#clip0)">
<path d="M83.7916 23.2759C83.5588 23.2759 83.3214 23.2232 83.0979 23.113L64.4773 13.8025C63.7107 13.4193 63.4004 12.4866 63.7836 11.72C64.1668 10.9535 65.1011 10.6446 65.8661 11.0264L84.4868 20.3368C85.2534 20.72 85.5636 21.6527 85.1804 22.4193C84.9088 22.9625 84.3611 23.2759 83.7916 23.2759Z" fill="#E7ECED"/>
<path d="M72.9326 43.4482C72.4702 43.4482 72.0124 43.2418 71.7067 42.8493L60.8447 28.8839C60.3186 28.2057 60.4413 27.2327 61.1163 26.7068C61.7928 26.1761 62.7674 26.3034 63.2933 26.9784L74.1554 40.9439C74.6815 41.622 74.5588 42.595 73.8838 43.1209C73.5999 43.3427 73.2647 43.4482 72.9326 43.4482Z" fill="#E7ECED"/>
<path d="M49.978 69.975C49.5062 69.975 49.0408 69.7609 48.7351 69.3543C48.2214 68.67 48.3596 67.6971 49.0455 67.1834L57.7134 60.6832C58.3993 60.1696 59.3723 60.3077 59.8859 60.9936C60.3996 61.678 60.2614 62.6509 59.5755 63.1645L50.9076 69.6647C50.6282 69.8725 50.3023 69.975 49.978 69.975Z" fill="#E7ECED"/>
<path d="M20.1725 76.0345H9.31048C8.4539 76.0345 7.75868 75.3409 7.75868 74.4827C7.75868 73.6246 8.4539 72.9309 9.31048 72.9309H20.1725C21.0291 72.9309 21.7243 73.6246 21.7243 74.4827C21.7242 75.3409 21.0289 76.0345 20.1725 76.0345Z" fill="#E7ECED"/>
<path d="M41.3163 45.2561C41.0044 45.2561 40.6878 45.1614 40.4147 44.9659L27.0279 35.3995C26.3311 34.9014 26.1697 33.9332 26.6679 33.235C27.166 32.5368 28.1358 32.3768 28.8324 32.875L42.2192 42.4413C42.916 42.9395 43.0774 43.9077 42.5792 44.6059C42.2769 45.0311 41.8005 45.2561 41.3163 45.2561Z" fill="#E7ECED"/>
<path d="M26.4896 26.2707C26.0567 26.2707 25.6269 26.0923 25.3212 25.74C24.7564 25.0946 24.823 24.1139 25.4687 23.5505L37.7739 12.7971C38.4178 12.2323 39.3985 12.2975 39.9634 12.9445C40.5282 13.59 40.4616 14.5707 39.8159 15.1341L27.5107 25.8875C27.2158 26.145 26.8512 26.2707 26.4896 26.2707Z" fill="#E7ECED"/>
<path d="M15.5173 21.7241C14.6607 21.7241 13.9655 21.0305 13.9655 20.1723V9.31043C13.9655 8.45227 14.6607 7.75864 15.5173 7.75864C16.3738 7.75864 17.0691 8.45227 17.0691 9.31043V20.1725C17.0689 21.0305 16.3738 21.7241 15.5173 21.7241Z" fill="#E7ECED"/>
<path d="M64.5921 84.0491C64.3639 84.0491 64.1328 83.9994 63.9139 83.8923L47.4237 75.8777C46.6526 75.5039 46.3312 74.5743 46.7069 73.8032C47.0824 73.032 48.0087 72.7123 48.7815 73.0863L65.2717 81.1009C66.0428 81.4748 66.3642 82.4043 65.9885 83.1755C65.7203 83.728 65.1678 84.0491 64.5921 84.0491Z" fill="#E7ECED"/>
<path d="M31.0345 35.6896C31.0345 27.1194 24.0875 20.1723 15.5173 20.1723C6.94705 20.1723 0 27.1195 0 35.6896C0 41.4294 3.12522 46.4291 7.75863 49.1135V45.023C7.75863 43.296 9.21727 41.8962 11.0157 41.8962H20.0188C21.8173 41.8962 23.2759 43.2958 23.2759 45.023V49.1103C27.9109 46.4307 31.0345 41.4295 31.0345 35.6896Z" fill="#FEC830"/>
<path d="M85.3448 27.9311C87.9158 27.9311 90.0001 25.8469 90.0001 23.2759C90.0001 20.7049 87.9158 18.6207 85.3448 18.6207C82.7738 18.6207 80.6896 20.7049 80.6896 23.2759C80.6896 25.8469 82.7738 27.9311 85.3448 27.9311Z" fill="#343434"/>
<path d="M4.65521 79.1379C7.22622 79.1379 9.31043 77.0537 9.31043 74.4827C9.31043 71.9117 7.22622 69.8275 4.65521 69.8275C2.08421 69.8275 0 71.9117 0 74.4827C0 77.0537 2.08421 79.1379 4.65521 79.1379Z" fill="#343434"/>
<path d="M68.276 90C70.847 90 72.9312 87.9158 72.9312 85.3448C72.9312 82.7738 70.847 80.6896 68.276 80.6896C65.705 80.6896 63.6208 82.7738 63.6208 85.3448C63.6208 87.9158 65.705 90 68.276 90Z" fill="#343434"/>
<path d="M44.9999 51.207C47.5709 51.207 49.6551 49.1228 49.6551 46.5518C49.6551 43.9808 47.5709 41.8966 44.9999 41.8966C42.4289 41.8966 40.3447 43.9808 40.3447 46.5518C40.3447 49.1228 42.4289 51.207 44.9999 51.207Z" fill="#343434"/>
<path d="M15.5173 35.6897C18.0883 35.6897 20.1725 33.6055 20.1725 31.0345C20.1725 28.4635 18.0883 26.3793 15.5173 26.3793C12.9463 26.3793 10.8621 28.4635 10.8621 31.0345C10.8621 33.6055 12.9463 35.6897 15.5173 35.6897Z" fill="white"/>
<path d="M20.0189 41.8966H11.0157C9.21731 41.8966 7.75868 43.2962 7.75868 45.0234V49.1138C10.0428 50.4375 12.6869 51.207 15.5173 51.207C18.3477 51.207 20.9918 50.4375 23.2759 49.1138V45.0234C23.2759 43.2962 21.8173 41.8966 20.0189 41.8966Z" fill="white"/>
<path d="M68.2758 15.5173C68.2758 6.94705 61.3288 0 52.7586 0C44.1884 0 37.2413 6.94705 37.2413 15.5173C37.2413 21.2571 40.3665 26.2568 45 28.9412V24.8507C45 23.1237 46.4586 21.7239 48.257 21.7239H57.2602C59.0586 21.7239 60.5172 23.1235 60.5172 24.8507V28.938C65.1522 26.2582 68.2758 21.2571 68.2758 15.5173Z" fill="#FEC830"/>
<path d="M52.7586 15.5173C55.3296 15.5173 57.4138 13.4331 57.4138 10.8621C57.4138 8.29105 55.3296 6.20684 52.7586 6.20684C50.1876 6.20684 48.1034 8.29105 48.1034 10.8621C48.1034 13.4331 50.1876 15.5173 52.7586 15.5173Z" fill="white"/>
<path d="M57.2602 21.7241H48.257C46.4586 21.7241 45 23.1237 45 24.8509V28.9413C47.2841 30.265 49.9282 31.0345 52.7586 31.0345C55.5891 31.0345 58.2332 30.265 60.5173 28.9413V24.8509C60.5173 23.1239 59.0586 21.7241 57.2602 21.7241Z" fill="white"/>
<path d="M88.4481 55.8621C88.4481 47.2918 81.5011 40.3448 72.9308 40.3448C64.3606 40.3448 57.4136 47.2918 57.4136 55.8621C57.4136 61.6018 60.5388 66.6016 65.1722 69.2859V65.1955C65.1722 63.4685 66.6308 62.0687 68.4293 62.0687H77.4324C79.2308 62.0687 80.6895 63.4683 80.6895 65.1955V69.2828C85.3245 66.6032 88.4481 61.6018 88.4481 55.8621Z" fill="#FEC830"/>
<path d="M72.9311 55.862C75.5021 55.862 77.5863 53.7778 77.5863 51.2068C77.5863 48.6358 75.5021 46.5516 72.9311 46.5516C70.3601 46.5516 68.2758 48.6358 68.2758 51.2068C68.2758 53.7778 70.3601 55.862 72.9311 55.862Z" fill="white"/>
<path d="M77.4325 62.0689H68.4293C66.6309 62.0689 65.1723 63.4684 65.1723 65.1957V69.2861C67.4564 70.6097 70.1005 71.3793 72.9309 71.3793C75.7613 71.3793 78.4054 70.6097 80.6895 69.2861V65.1957C80.6895 63.4686 79.2311 62.0689 77.4325 62.0689Z" fill="white"/>
<path d="M51.2068 74.4827C51.2068 65.9125 44.2597 58.9655 35.6895 58.9655C27.1193 58.9655 20.1723 65.9125 20.1723 74.4827C20.1723 80.2225 23.2975 85.2223 27.9309 87.9066V83.8162C27.9309 82.0891 29.3895 80.6894 31.1879 80.6894H40.1911C41.9895 80.6894 43.4482 82.089 43.4482 83.8162V87.9035C48.0832 85.2238 51.2068 80.2225 51.2068 74.4827Z" fill="#FEC830"/>
<path d="M35.6895 74.4827C38.2606 74.4827 40.3448 72.3985 40.3448 69.8275C40.3448 67.2565 38.2606 65.1723 35.6895 65.1723C33.1185 65.1723 31.0343 67.2565 31.0343 69.8275C31.0343 72.3985 33.1185 74.4827 35.6895 74.4827Z" fill="white"/>
<path d="M40.1912 80.6896H31.188C29.3896 80.6896 27.9309 82.0891 27.9309 83.8164V87.9068C30.215 89.2304 32.8591 90 35.6896 90C38.52 90 41.1641 89.2304 43.4482 87.9068V83.8164C43.4482 82.0893 41.9896 80.6896 40.1912 80.6896Z" fill="white"/>
<path d="M15.5173 9.31043C18.0883 9.31043 20.1725 7.22622 20.1725 4.65521C20.1725 2.08421 18.0883 0 15.5173 0C12.9463 0 10.8621 2.08421 10.8621 4.65521C10.8621 7.22622 12.9463 9.31043 15.5173 9.31043Z" fill="#343434"/>
</g>
<defs>
<clipPath id="clip0">
<rect width="90" height="90" fill="white"/>
</clipPath>
</defs>
</svg>

<svg width="90" height="90" fill="none" xmlns="http://www.w3.org/2000/svg"><g clip-path="url(#clip0)"><path d="M83.792 23.276c-.233 0-.47-.053-.694-.163l-18.62-9.31a1.552 1.552 0 011.388-2.777l18.62 9.31a1.552 1.552 0 01-.694 2.94zM72.933 43.448a1.55 1.55 0 01-1.226-.599L60.845 28.884a1.552 1.552 0 012.448-1.906l10.862 13.966a1.552 1.552 0 01-1.222 2.504zM49.978 69.975a1.55 1.55 0 01-.933-2.792l8.668-6.5a1.552 1.552 0 011.862 2.481l-8.667 6.5c-.28.209-.606.311-.93.311zM20.172 76.034H9.31a1.551 1.551 0 110-3.103h10.862a1.551 1.551 0 110 3.103zM41.316 45.256c-.312 0-.628-.095-.901-.29L27.028 35.4a1.552 1.552 0 011.804-2.525l13.387 9.566a1.552 1.552 0 01-.903 2.815zM26.49 26.27a1.55 1.55 0 01-1.02-2.72l12.304-10.753a1.55 1.55 0 012.19.147 1.55 1.55 0 01-.148 2.19L27.51 25.887c-.295.258-.66.384-1.021.384zM15.517 21.724a1.551 1.551 0 01-1.551-1.552V9.31a1.551 1.551 0 113.103 0v10.862c0 .858-.695 1.552-1.552 1.552zM64.592 84.05c-.228 0-.46-.05-.678-.158l-16.49-8.014a1.552 1.552 0 011.358-2.791l16.49 8.014a1.55 1.55 0 01-.68 2.948z" fill="#E7ECED"/><path d="M31.035 35.69c0-8.57-6.948-15.518-15.518-15.518S0 27.12 0 35.69c0 5.74 3.125 10.74 7.759 13.424v-4.091c0-1.727 1.458-3.127 3.257-3.127h9.003c1.798 0 3.257 1.4 3.257 3.127v4.087c4.635-2.68 7.759-7.68 7.759-13.42z" fill="#FEC830"/><path d="M85.345 27.931a4.655 4.655 0 100-9.31 4.655 4.655 0 000 9.31zM4.655 79.138a4.655 4.655 0 100-9.31 4.655 4.655 0 000 9.31zM68.276 90a4.655 4.655 0 100-9.31 4.655 4.655 0 000 9.31zM45 51.207a4.655 4.655 0 100-9.31 4.655 4.655 0 000 9.31z" fill="#343434"/><path d="M15.517 35.69a4.655 4.655 0 100-9.31 4.655 4.655 0 000 9.31zM20.019 41.897h-9.003c-1.799 0-3.257 1.4-3.257 3.126v4.09a15.418 15.418 0 0015.517 0v-4.09c0-1.727-1.459-3.126-3.257-3.126z" fill="#fff"/><path d="M68.276 15.517C68.276 6.947 61.329 0 52.759 0S37.24 6.947 37.24 15.517c0 5.74 3.126 10.74 7.759 13.424v-4.09c0-1.727 1.459-3.127 3.257-3.127h9.003c1.799 0 3.257 1.4 3.257 3.127v4.087c4.635-2.68 7.759-7.68 7.759-13.42z" fill="#FEC830"/><path d="M52.759 15.517a4.655 4.655 0 100-9.31 4.655 4.655 0 000 9.31zM57.26 21.724h-9.003c-1.798 0-3.257 1.4-3.257 3.127v4.09a15.418 15.418 0 0015.517 0v-4.09c0-1.727-1.458-3.127-3.257-3.127z" fill="#fff"/><path d="M88.448 55.862c0-8.57-6.947-15.517-15.517-15.517s-15.517 6.947-15.517 15.517c0 5.74 3.125 10.74 7.758 13.424v-4.09c0-1.727 1.459-3.127 3.257-3.127h9.003c1.799 0 3.257 1.4 3.257 3.126v4.088c4.636-2.68 7.76-7.681 7.76-13.42z" fill="#FEC830"/><path d="M72.931 55.862a4.655 4.655 0 100-9.31 4.655 4.655 0 000 9.31zM77.433 62.069h-9.004c-1.798 0-3.257 1.4-3.257 3.127v4.09a15.419 15.419 0 0015.517 0v-4.09c0-1.727-1.458-3.127-3.256-3.127z" fill="#fff"/><path d="M51.207 74.483c0-8.57-6.947-15.518-15.517-15.518s-15.518 6.947-15.518 15.518c0 5.74 3.125 10.74 7.759 13.424v-4.09c0-1.728 1.459-3.128 3.257-3.128h9.003c1.798 0 3.257 1.4 3.257 3.127v4.087c4.635-2.68 7.759-7.68 7.759-13.42z" fill="#FEC830"/><path d="M35.69 74.483a4.655 4.655 0 100-9.31 4.655 4.655 0 000 9.31zM40.191 80.69h-9.003c-1.798 0-3.257 1.4-3.257 3.126v4.09a15.419 15.419 0 0015.517 0v-4.09c0-1.727-1.458-3.126-3.257-3.126z" fill="#fff"/><path d="M15.517 9.31a4.655 4.655 0 100-9.31 4.655 4.655 0 000 9.31z" fill="#343434"/></g><defs><clipPath id="clip0"><path fill="#fff" d="M0 0h90v90H0z"/></clipPath></defs></svg>
